symbols/web/no_food/materialsymbolsoutlined/no_food_wght300fill1_40px.svg

<svg xmlns="http://www.w3.org/2000/svg" height="40" width="40"><path d="M34.875 31.583 19.542 16.208l-.792-6.333h8.083V2.833h2.084v7.042h8.208Zm-.792 6.334L22.625 26.458H2.875q0-3.5 3-5.937 3-2.438 8.833-2.438.709 0 1.396.042.688.042 1.313.167v2.958L1.25 5.125l1.5-1.5 32.833 32.792ZM2.875 31.958V29.75h23.667v2.208ZM4 37.5q-.458 0-.792-.333-.333-.334-.333-.792V35.25h23.667v1.125q0 .458-.313.792-.312.333-.812.333Z"/></svg>

<svg xmlns="http://www.w3.org/2000/svg" height="40" width="40"><path d="M34.083 37.917 22.625 26.458H2.875Q2.875 22.708 5.979 20.479Q9.083 18.25 14.125 18.125H14.292L1.25 5.125L2.75 3.625L35.583 36.417ZM4.5 37.5Q3.792 37.5 3.333 37.042Q2.875 36.583 2.875 35.917V35.25H26.542V35.917Q26.542 36.583 26.083 37.042Q25.625 37.5 24.917 37.5ZM2.875 31.958V29.708H26.542V31.958ZM34.875 31.583 19.542 16.208 18.75 9.875H26.833V2.833H28.917V9.875H37.125Z"/></svg>
